src/data/LangChain_Logo.svg

<svg width="100%" height="100%" viewBox="0 0 240 41" fill="none" xmlns="http://www.w3.org/2000/svg">
<path d="M61.5139 11.1569C60.4527 11.1569 59.4549 11.568 58.708 12.3148L55.6899 15.3248C54.8757 16.1368 54.4574 17.2643 54.5431 18.4202C54.5492 18.4833 54.5553 18.5464 54.5615 18.6115C54.6696 19.4988 55.0594 20.2986 55.6899 20.9254C56.1246 21.3589 56.6041 21.6337 57.1857 21.825C57.2163 22 57.2326 22.177 57.2326 22.3541C57.2326 23.1519 56.9225 23.9008 56.3592 24.4625L56.1735 24.6477C55.1655 24.3037 54.3247 23.8011 53.5656 23.044C52.5576 22.0386 51.8903 20.7687 51.6393 19.3747L51.6046 19.1813L51.4515 19.3055C51.3475 19.3889 51.2495 19.4785 51.1577 19.57L48.1396 22.58C46.5928 24.1226 46.5928 26.636 48.1396 28.1786C48.913 28.9499 49.9292 29.3366 50.9475 29.3366C51.9658 29.3366 52.98 28.9499 53.7534 28.1786L56.7715 25.1687C58.3183 23.626 58.3183 21.1147 56.7715 19.57C56.3592 19.159 55.8675 18.8496 55.3104 18.6502C55.2798 18.469 55.2634 18.2879 55.2634 18.1109C55.2634 17.2439 55.6063 16.4217 56.2348 15.7949C57.2449 16.1388 58.1407 16.6965 58.8978 17.4515C59.9038 18.4548 60.5691 19.7227 60.8241 21.1208L60.8588 21.3141L61.0119 21.19C61.116 21.1066 61.2139 21.017 61.3078 20.9234L64.3259 17.9135C65.8727 16.3708 65.8747 13.8575 64.3259 12.3148C63.577 11.568 62.5811 11.1569 61.518 11.1569H61.5139Z" fill="CurrentColor"></path>
<path d="M59.8966 0.148865H20.4063C9.15426 0.148865 0 9.27841 0 20.5001C0 31.7217 9.15426 40.8513 20.4063 40.8513H59.8966C71.1486 40.8513 80.3029 31.7217 80.3029 20.5001C80.3029 9.27841 71.1486 0.148865 59.8966 0.148865ZM40.4188 32.0555C39.7678 32.1898 39.0352 32.2142 38.5373 31.6953C38.3536 32.1165 37.9251 31.8947 37.5945 31.8398C37.5639 31.9252 37.5374 32.0005 37.5088 32.086C36.4089 32.1593 35.5845 31.04 35.0601 30.1954C34.0193 29.6337 32.8378 29.2918 31.7746 28.7036C31.7134 29.6724 31.9257 30.8731 31.0012 31.4979C30.9543 33.36 33.8255 31.7177 34.0887 33.1056C33.8847 33.128 33.6582 33.073 33.4949 33.2297C32.746 33.9563 31.8869 32.6803 31.0237 33.2074C29.8646 33.7894 29.7483 34.2656 28.3137 34.3857C28.2342 34.2656 28.2668 34.1862 28.3341 34.113C28.7382 33.6449 28.7668 33.0934 29.4565 32.8939C28.7464 32.782 28.1525 33.1728 27.5546 33.4821C26.7771 33.7996 26.7833 32.7657 25.5875 33.537C25.4548 33.4292 25.5181 33.3315 25.5936 33.2481C25.8976 32.8777 26.2976 32.8227 26.7486 32.8431C24.5304 31.6098 23.4856 34.3511 22.4612 32.9876C22.1531 33.069 22.0368 33.3457 21.8429 33.5411C21.6756 33.358 21.8021 33.1361 21.8103 32.9204C21.6103 32.8268 21.3572 32.782 21.4164 32.4625C21.0246 32.3302 20.7512 32.5622 20.4594 32.782C20.1961 32.5785 20.6369 32.2814 20.7185 32.0697C20.9532 31.6627 21.4878 31.9863 21.7592 31.6932C22.5306 31.2557 23.606 31.9659 24.4876 31.8459C25.1671 31.9313 26.0078 31.2353 25.667 30.5413C24.9406 29.6154 25.0691 28.4045 25.0528 27.2974C24.963 26.6522 23.4101 25.83 22.9612 25.134C22.4061 24.5072 21.9735 23.7807 21.5409 23.0664C19.9798 20.0523 20.4716 16.1795 18.5044 13.3812C17.6147 13.8717 16.4556 13.6397 15.6884 12.9823C15.2741 13.3588 15.2557 13.8513 15.2231 14.3744C14.2293 13.3833 14.3538 11.5109 15.1476 10.4079C15.4721 9.97239 15.8598 9.61421 16.2924 9.29876C16.3903 9.22754 16.423 9.15834 16.4209 9.04844C17.2066 5.52362 22.5653 6.20335 24.259 8.70044C25.4875 10.237 25.8589 12.27 27.2526 13.6967C29.1279 15.744 31.2645 17.5471 32.9949 19.7267C34.6315 21.7191 35.8008 24.0554 36.8211 26.4101C37.2374 27.1915 37.2415 28.1501 37.8578 28.8176C38.1618 29.2206 39.6474 30.3175 39.325 30.7062C39.5107 31.1091 40.8983 31.6647 40.4167 32.0555H40.4188ZM66.4449 20.032L63.4269 23.0419C62.6228 23.8438 61.6291 24.4421 60.5516 24.7697L60.4965 24.786L60.4761 24.8389C60.1251 25.7629 59.5925 26.5871 58.8905 27.2852L55.8724 30.2951C54.5562 31.6078 52.8054 32.3302 50.9402 32.3302C49.0751 32.3302 47.3242 31.6078 46.008 30.2951C43.2879 27.5823 43.2879 23.1701 46.008 20.4573L49.0261 17.4474C49.8342 16.6415 50.8015 16.0615 51.8973 15.7257L51.9524 15.7094L51.9728 15.6565C52.3238 14.7325 52.8584 13.9063 53.5625 13.2021L56.5805 10.1922C57.8967 8.87953 59.6476 8.15706 61.5127 8.15706C63.3779 8.15706 65.1287 8.87953 66.4449 10.1922C67.7612 11.5048 68.4856 13.251 68.4856 15.1111C68.4856 16.9712 67.7612 18.7193 66.4449 20.03V20.032Z" fill="CurrentColor"></path>
<path d="M28.1422 28.4126C27.8769 29.4424 27.7912 31.1946 26.4485 31.2455C26.3383 31.8398 26.8607 32.0636 27.3382 31.8723C27.8096 31.6566 28.034 32.0433 28.1932 32.4279C28.9217 32.5337 29.9992 32.1857 30.04 31.3249C28.9523 30.7001 28.6156 29.5116 28.1442 28.4106L28.1422 28.4126Z" fill="CurrentColor"></path>
<path d="M99.2089 10.8162H95.624V32.5623H111V29.0983H99.2089V10.8162Z" fill="CurrentColor"></path>
<path d="M129.021 32.5623H132.606V32.5236H132.653L132.66 32.364C132.661 32.3173 132.674 31.8821 132.608 31.2115V23.1182C132.608 20.0733 134.828 18.6871 136.891 18.6871C139.11 18.6871 140.19 19.8831 140.19 22.3445V32.5623H143.775V21.8674C143.775 17.8054 141.194 15.2812 137.041 15.2812C135.276 15.2812 133.701 15.7825 132.464 16.7351L132.431 15.5794H129.026V32.5623H129.021Z" fill="CurrentColor"></path>
<path d="M158.365 16.827C157.119 15.8147 155.517 15.2812 153.71 15.2812C148.876 15.2812 145.873 18.6146 145.873 23.9806C145.873 29.3466 148.876 32.7106 153.71 32.7106C155.415 32.7106 156.937 32.2464 158.136 31.363C158.033 33.9953 156.384 35.5588 153.681 35.5588C151.408 35.5588 150.122 34.8351 149.858 33.4085L149.825 33.2312L146.342 34.2935L146.373 34.4369C146.961 37.2722 149.614 38.9647 153.473 38.9647C156.091 38.9647 158.144 38.2523 159.577 36.8451C161.023 35.4266 161.755 33.3827 161.755 30.7715V15.5794H158.439L158.367 16.827H158.365ZM158.141 24.1305C158.141 27.3704 156.563 29.3063 153.918 29.3063C151.083 29.3063 149.458 27.3655 149.458 23.9822C149.458 20.5988 151.084 18.6871 153.918 18.6871C156.499 18.6871 158.115 20.6133 158.141 23.713V24.1305Z" fill="CurrentColor"></path>
<path d="M179.418 25.6665C178.675 28.0698 176.767 29.3948 174.047 29.3948C170.158 29.3948 167.74 26.4418 167.74 21.6884C167.74 16.9349 170.179 13.9819 174.107 13.9819C176.825 13.9819 178.391 15.0474 179.188 17.4346L179.56 18.5516L182.945 16.9623L182.627 16.0677C181.338 12.4361 178.361 10.5179 174.018 10.5179C171.067 10.5179 168.562 11.5834 166.773 13.5983C165.003 15.5938 164.066 18.3904 164.066 21.69C164.066 28.476 167.983 32.862 174.047 32.862C178.32 32.862 181.63 30.6263 182.9 26.8803L183.224 25.9228L179.747 24.601L179.416 25.6681L179.418 25.6665Z" fill="CurrentColor"></path>
<path d="M192.806 15.2812C191.094 15.2812 189.571 15.7503 188.375 16.6417V8.73212H184.79V32.5639H188.375V23.1199C188.375 20.0557 190.594 18.6598 192.658 18.6598C194.877 18.6598 195.957 19.8558 195.957 22.3171V32.5656H199.542V21.84C199.542 17.857 196.899 15.2845 192.808 15.2845L192.806 15.2812Z" fill="CurrentColor"></path>
<path d="M220.496 8.21954C219.164 8.21954 218.197 9.18668 218.197 10.5181C218.197 11.8495 219.164 12.8167 220.496 12.8167C221.827 12.8167 222.794 11.8495 222.794 10.5181C222.794 9.18668 221.827 8.21954 220.496 8.21954Z" fill="CurrentColor"></path>
<path d="M233.262 15.2812C231.497 15.2812 229.923 15.7825 228.686 16.7351L228.652 15.5794H225.248V32.5623H228.833V23.1182C228.833 20.0733 231.052 18.6871 233.116 18.6871C235.335 18.6871 236.415 19.8831 236.415 22.3445V32.5623H240V21.8674C240 17.8054 237.419 15.2812 233.266 15.2812H233.262Z" fill="CurrentColor"></path>
<path d="M222.237 15.5794H218.67V23.9984C217.68 23.1666 216.514 22.538 215.198 22.127V21.271C215.198 17.5202 212.736 15.2812 208.611 15.2812C205.26 15.2812 202.754 16.8545 201.733 19.5963L201.458 20.3361L204.332 22.4542L204.825 21.1695C205.475 19.4754 206.679 18.6856 208.611 18.6856C210.544 18.6856 211.613 19.6156 211.613 21.4483V21.5435C211.498 21.5386 211.382 21.5354 211.266 21.5338C207.428 21.4725 204.628 22.3704 202.944 24.1982C201.221 26.068 201.372 28.1683 201.395 28.4004L201.411 28.5616H201.427C201.695 31.1777 203.98 32.8573 207.301 32.8573C209.13 32.8573 210.82 32.348 212.098 31.4179L212.112 32.5607H215.198V27.2479L215.131 27.1996C214.695 26.8804 213.934 26.4678 212.789 26.3227C212.43 26.2776 212.087 26.255 211.771 26.2615H211.611V26.7499C211.611 27.8734 210.32 29.4546 207.448 29.4546C205.328 29.4546 205.012 28.5632 205.012 28.0313V27.9765C205.028 27.738 205.128 27.1544 205.655 26.6112C206.324 25.9197 207.83 25.1106 211.207 25.1622C213.652 25.2008 215.528 25.8843 216.784 27.1947C218.325 28.8034 218.615 31.0053 218.668 31.8676V32.5623H222.235V15.5794H222.237Z" fill="CurrentColor"></path>
<path d="M119.752 15.2071C116.401 15.2071 113.895 16.7803 112.874 19.5221L112.599 20.262L115.473 22.38L115.966 21.0953C116.616 19.4012 117.82 18.6114 119.752 18.6114C121.685 18.6114 122.754 19.5415 122.754 21.3742V21.8046L119.062 22.4558C114.734 23.2214 112.539 25.0719 112.539 27.9539C112.539 30.836 114.855 32.7832 118.44 32.7832C120.27 32.7832 121.959 32.2738 123.237 31.3437L123.252 32.4866H126.337V21.1969C126.337 17.446 123.875 15.2071 119.751 15.2071H119.752ZM122.754 25.1638V26.6773C122.754 27.8008 121.462 29.3821 118.59 29.3821C116.47 29.3821 116.155 28.4907 116.155 27.9588C116.155 27.4865 116.155 26.3807 119.91 25.6844L122.754 25.1654V25.1638Z" fill="CurrentColor"></path>
</svg>

<svg fill="none" viewBox="0 0 240 41"><path fill="currentcolor" d="M61.514 11.157a3.94 3.94 0 0 0-2.806 1.158l-3.018 3.01a3.95 3.95 0 0 0-1.147 3.095l.019.191a3.9 3.9 0 0 0 1.128 2.314 3.6 3.6 0 0 0 1.496.9q.046.263.047.53c0 .797-.31 1.546-.874 2.107l-.186.186c-1.008-.344-1.848-.847-2.607-1.604a6.9 6.9 0 0 1-1.927-3.67l-.034-.193-.153.124a4 4 0 0 0-.294.265l-3.018 3.01a3.957 3.957 0 0 0 2.807 6.757 3.96 3.96 0 0 0 2.806-1.158l3.019-3.01a3.96 3.96 0 0 0 0-5.599 3.9 3.9 0 0 0-1.462-.92 3.25 3.25 0 0 1 .924-2.855 6.9 6.9 0 0 1 2.664 1.656 6.9 6.9 0 0 1 1.926 3.67l.035.193.153-.124q.155-.125.296-.267l3.018-3.01a3.956 3.956 0 0 0-2.808-6.756z"/><path fill="currentcolor" d="M59.897.149h-39.49C9.153.149 0 9.279 0 20.5c0 11.222 9.154 20.351 20.406 20.351h39.49c11.253 0 20.407-9.13 20.407-20.35C80.303 9.277 71.149.148 59.897.148M40.419 32.056c-.651.134-1.384.158-1.882-.36-.183.42-.612.199-.943.144-.03.085-.057.16-.085.246-1.1.073-1.925-1.046-2.449-1.89-1.04-.562-2.222-.904-3.285-1.492-.062.968.15 2.17-.774 2.794-.047 1.862 2.824.22 3.088 1.608-.204.022-.43-.033-.594.124-.749.726-1.608-.55-2.471-.023-1.16.582-1.276 1.059-2.71 1.179-.08-.12-.047-.2.02-.273.404-.468.433-1.02 1.122-1.22-.71-.111-1.303.28-1.901.59-.778.317-.772-.717-1.968.054-.132-.108-.069-.206.007-.289.304-.37.704-.425 1.155-.405-2.219-1.233-3.263 1.508-4.288.145-.308.081-.424.358-.618.553-.167-.183-.04-.405-.033-.62-.2-.094-.453-.139-.394-.459-.391-.132-.665.1-.957.32-.263-.203.178-.5.26-.712.234-.407.769-.084 1.04-.377.772-.437 1.847.273 2.729.153.68.085 1.52-.61 1.179-1.305-.726-.926-.598-2.137-.614-3.244-.09-.645-1.643-1.467-2.092-2.163-.555-.627-.987-1.353-1.42-2.068-1.561-3.014-1.07-6.886-3.037-9.685-.89.49-2.048.259-2.816-.399-.414.377-.432.87-.465 1.392-.994-.99-.87-2.863-.075-3.966a5.3 5.3 0 0 1 1.144-1.11c.098-.07.131-.14.129-.25.786-3.524 6.144-2.845 7.838-.348 1.229 1.537 1.6 3.57 2.994 4.997 1.875 2.047 4.012 3.85 5.742 6.03 1.637 1.992 2.806 4.328 3.826 6.683.416.782.42 1.74 1.037 2.408.304.403 1.79 1.5 1.467 1.888.186.403 1.573.959 1.092 1.35zm26.026-12.024-3.018 3.01a6.96 6.96 0 0 1-2.875 1.728l-.056.016-.02.053a6.9 6.9 0 0 1-1.585 2.446l-3.019 3.01a6.94 6.94 0 0 1-4.932 2.035 6.94 6.94 0 0 1-4.932-2.035 6.95 6.95 0 0 1 0-9.838l3.018-3.01a6.9 6.9 0 0 1 2.871-1.721l.055-.017.02-.053a6.9 6.9 0 0 1 1.59-2.454l3.019-3.01a6.94 6.94 0 0 1 4.932-2.035c1.865 0 3.616.723 4.932 2.035a6.9 6.9 0 0 1 2.04 4.92c0 1.86-.724 3.607-2.04 4.918z"/><path fill="currentcolor" d="M28.142 28.413c-.265 1.03-.35 2.782-1.694 2.832-.11.595.413.819.89.627.472-.215.696.171.855.556.729.106 1.806-.242 1.847-1.103-1.088-.625-1.424-1.813-1.896-2.914zm71.067-17.597h-3.585v21.746H111v-3.464H99.209zm29.812 21.746h3.585v-.038h.047l.007-.16c.001-.047.014-.482-.052-1.152v-8.094c0-3.045 2.22-4.43 4.283-4.43 2.219 0 3.299 1.195 3.299 3.657v10.217h3.585V21.867c0-4.062-2.581-6.586-6.734-6.586-1.765 0-3.34.502-4.577 1.454l-.033-1.156h-3.405v16.983zm29.344-15.735c-1.246-1.012-2.848-1.546-4.655-1.546-4.834 0-7.837 3.334-7.837 8.7s3.003 8.73 7.837 8.73c1.705 0 3.227-.465 4.426-1.348-.103 2.632-1.752 4.196-4.455 4.196-2.273 0-3.559-.724-3.823-2.15l-.033-.178-3.483 1.063.031.143c.588 2.835 3.241 4.528 7.1 4.528 2.618 0 4.671-.713 6.104-2.12 1.446-1.418 2.178-3.462 2.178-6.073V15.579h-3.316l-.072 1.248zm-.224 7.304c0 3.24-1.578 5.175-4.223 5.175-2.835 0-4.46-1.94-4.46-5.324s1.626-5.295 4.46-5.295c2.581 0 4.197 1.926 4.223 5.026zm21.277 1.536c-.743 2.403-2.651 3.728-5.371 3.728-3.889 0-6.307-2.953-6.307-7.707s2.439-7.706 6.367-7.706c2.718 0 4.284 1.065 5.081 3.453l.372 1.117 3.385-1.59-.318-.894c-1.289-3.632-4.266-5.55-8.609-5.55-2.951 0-5.456 1.065-7.245 3.08-1.77 1.996-2.707 4.792-2.707 8.092 0 6.786 3.917 11.172 9.981 11.172 4.273 0 7.583-2.236 8.853-5.982l.324-.957-3.477-1.322-.331 1.067zm13.388-10.386c-1.712 0-3.235.47-4.431 1.36V8.733h-3.585v23.832h3.585V23.12c0-3.064 2.219-4.46 4.283-4.46 2.219 0 3.299 1.196 3.299 3.657v10.249h3.585V21.84c0-3.983-2.643-6.555-6.734-6.555zm27.69-7.061c-1.332 0-2.299.967-2.299 2.298 0 1.332.967 2.299 2.299 2.299s2.298-.967 2.298-2.299-.967-2.298-2.298-2.298m12.766 7.061c-1.765 0-3.339.502-4.576 1.454l-.034-1.156h-3.404v16.983h3.585v-9.444c0-3.045 2.219-4.43 4.283-4.43 2.219 0 3.299 1.195 3.299 3.657v10.217H240V21.867c0-4.062-2.581-6.586-6.734-6.586zm-11.025.299h-3.567v8.418c-.99-.831-2.156-1.46-3.472-1.871v-.856c0-3.75-2.462-5.99-6.587-5.99-3.351 0-5.857 1.574-6.878 4.315l-.275.74 2.874 2.118.493-1.285c.65-1.694 1.854-2.483 3.786-2.483 1.933 0 3.002.93 3.002 2.762v.096a12 12 0 0 0-.347-.01c-3.838-.061-6.638.836-8.322 2.664-1.723 1.87-1.572 3.97-1.549 4.202l.016.162h.016c.268 2.616 2.553 4.295 5.874 4.295 1.829 0 3.519-.509 4.797-1.44l.014 1.144h3.086v-5.313l-.067-.048c-.436-.32-1.197-.732-2.342-.877a7 7 0 0 0-1.018-.061h-.16v.488c0 1.123-1.291 2.705-4.163 2.705-2.12 0-2.436-.892-2.436-1.424v-.054c.016-.239.116-.823.643-1.366.669-.691 2.175-1.5 5.552-1.449 2.445.039 4.321.722 5.577 2.033 1.541 1.608 1.831 3.81 1.884 4.673v.694h3.567V15.58zm-102.485-.373c-3.351 0-5.857 1.573-6.878 4.315l-.275.74 2.874 2.118.493-1.285c.65-1.694 1.854-2.484 3.786-2.484 1.933 0 3.002.93 3.002 2.763v.43l-3.692.652c-4.328.765-6.523 2.616-6.523 5.498s2.316 4.83 5.901 4.83c1.83 0 3.519-.51 4.797-1.44l.015 1.143h3.085v-11.29c0-3.751-2.462-5.99-6.586-5.99zm3.002 9.957v1.513c0 1.124-1.292 2.705-4.164 2.705-2.12 0-2.435-.891-2.435-1.423 0-.473 0-1.578 3.755-2.275z"/></svg>
